X:1
T:Title
%%score [ ( 1 2 ) ( 3 4 ) ]
L:1/8
Q:1/4=120
M:4/4
K:F
V:1 treble nm=" "
V:2 treble 
V:3 bass nm="Midi_74"
V:4 bass 
V:1
"^Sarah Flower Adams" A4 G2 F2 | F3 D D4 |"^Nearer, my God, to thee" C4 F2 A2 | %3
w: Near- er, my|God, to thee,|near- er to|
w: ~~~~Though, like a|wan- der- er,|the sun gone|
w: Then, with my|wak- ing thoughts|bright with thy|
w: Or, if on|joy- ful wing|cleav- ing the|
"^\"Bethany\"\nLowell Mason" G8 | A4 G2 F2 | F3 D D4 | (C2 F2) E2 G2 | F8 | c4 d2 c2 | c3 A c4 | %10
w: thee!|E'en though it|be a cross|that * rais- eth|me;|still all my|song shall be,|
w: down,|dark- ness be|o- ver me,|my * rest a|stone.|Yet in my|dreams I'd be|
w: praise,|out of my|sto- ny griefs|Beth * el I'll|raise.|So by my|woes to be|
w: sky,|sun, moon, and|stars for- got,|up * ward I'll|fly,|still all my|song shall be,|
 c4 d2 c2 | c3 A G4 | A4 G2 F2 | F3 D D4 | (C2 F2) E2 G2 | F8 |] %16
w: near- er, my|God, to thee;|near- er, my|God, to thee,|near * er to|thee!|
w: near- er, my||||||
w: near- er, my||||||
w: near- er my||||||
V:2
 C4 B,2 A,2 | D3 B, B,4 | C4 C2 C2 | C8 | C4 B,2 A,2 | D3 B, B,4 | (A,2 C2) C2 C2 | C8 | F4 F2 F2 | %9
 F3 F F4 | F4 F2 F2 | G3 C C4 | C4 B,2 A,2 | D3 B, B,4 | (A,2 C2) C2 C2 | C8 |] %16
V:3
 F,4 E,2 F,2 | B,3 F, F,4 | A,4 F,2 F,2 | E,8 | F,4 E,2 F,2 | B,3 F, F,4 | (F,2 A,2) G,2 B,2 | %7
 A,8 | A,4 B,2 A,2 | A,3 C A,4 | A,4 B,2 A,2 | %11
"^This edition produced by Andrew Sims 2018" G,3 F, E,4 | F,4 E,2 F,2 | B,3 F, F,4 | %14
 (F,2 A,2) G,2 B,2 | A,8 |] %16
V:4
 F,4 C,2 D,2 | B,,3 B,, B,,4 | F,,4 A,,2 F,,2 | C,8 | F,4 C,2 D,2 | B,,3 B,, B,,4 | C,4 C,2 C,2 | %7
 F,,8 | F,4 F,2 F,2 | F,3 F, F,4 | F,4 B,,2 F,2 | E,3 F, C,4 | F,4 C,2 D,2 | B,,3 B,, B,,4 | %14
 C,4 C,2 C,2 | F,,8 |] %16

